X:195
T:Blessed Assurance
%%stretchlast false
M:9/8
L:1/4
K:Bb clef=C1
"^I"[B,FBd]/ "^ii7³"[B,EBc]/ "^I"[B,DB]/ [B,Fdf]3/2 [B,Fdf]3/2 | "^IV²"[B,GBe]/ "^I"[B,DBf]/ "^IV²"[B,EBg]/ "^I"[B,DBf]3 | [B,Fdf]/ [B,FBd]/ [B,Fdf]/ [B,Fdb]3/2 "^V²"[CFca] [CFca]/ | "^ii7"[CBcg]/ "^V²"[CAcf]/ "^V/V"[CGc=e]/ "^V"[F,Acf]3 | "^I"[B,FBd]/ "^ii7³"[B,EBc]/ "^I"[B,DB]/ [B,Fdf]3/2 [B,Fdf]3/2 | "^IV²"[B,GBe]/ "^I"[B,DBf]/ "^IV²"[B,EBg]/ "^I"[B,DBf]3 | [B,DB]/ "^ii7³"[B,EBc]/ "^I"[B,FBd]/ "^ii¹"[E,Gce]3/2 [E,EGc]3/2 | "^I²"[F,DB]/ "^V7"[F,EAc]/ [F,EFA]/ "^I"[B,DFB]3 | [B,Bdf]/ [B,Bdf]/ [B,Bdf]/ [B,Fdb]3/2 [B,Bdf]3/2 | "^IV"[EBeg]/ [EBeg]/ [EBeg]/ "^I"[B,Bdf]3 | [B,Bdf]/ [B,Bdf]/ [B,Bdf]/ "^IV"[EBeg]3/2 "^I¹"[DBfb]3/2 | "^V²"[Ccfa]/ [Ccfa]/ "^V/V"[Cc=eg]/ "^V"[Fcfa]3 | "^V7"[Fea]/ "^IV"[FGeb]/ "^V7"[FAec']/ "^I"[B,Bdb]3/2 [B,Bdf]3/2 | "^IV²"[B,Beg]/ "^I"[B,Bdf]/ "^IV²"[B,Beg]/ "^I"[B,Bdf]3 | "^I¹"[DFB]/ "^V²"[CFAc]/ "^I"[B,FBd]/ "^ii¹"[E,Gce]3/2 [E,EGc]3/2 | "^I²"[F,DB]3/4 "^V7"[F,EAc]/4 "^V"[F,CFA]/ "^I"[B,DFB]3 |]
